release/img/creative-flat.svg

<svg width="31" height="31" viewBox="0 0 31 31" fill="none" xmlns="http://www.w3.org/2000/svg">
<path d="M20.5076 15.671C23.5104 15.671 25.9758 13.294 25.9758 10.3472L26 10.3238C26 7.4004 23.5591 5 20.5564 5C17.5294 5 15.0394 7.37617 15.0394 10.3238C15.0152 13.2464 17.5053 15.671 20.5076 15.671Z" fill="black"/>
<path d="M10.4334 30.5948C10.5879 30.7293 10.7402 30.863 10.8895 31V30.9766H10.9871C11.0358 30.9048 11.0846 30.8337 11.1334 30.7861C11.6948 30.2397 12.2563 29.669 12.8423 29.1226C13.3062 28.6706 13.5993 28.1484 13.6722 27.5302C13.8189 26.4373 13.2575 25.3679 12.2563 24.8449C11.2313 24.3218 10.0105 24.4647 9.15641 25.225C8.88755 25.4623 8.61912 25.748 8.35069 25.9853C7.93554 26.3421 7.34992 26.3178 7.00813 25.9619C6.64174 25.6052 6.64174 25.0345 7.00813 24.6544C7.22779 24.4405 7.42328 24.2266 7.64294 24.0369C7.69171 23.9651 7.81384 23.9651 7.88677 23.9651C8.61912 24.1322 9.25394 23.9651 9.83956 23.5139C12.5981 21.4226 15.3812 19.3071 18.1397 17.2159C18.1837 17.1875 18.2281 17.1591 18.2726 17.1248C18.3015 17.1023 18.3304 17.078 18.3593 17.0496C15.9668 16.2651 14.4045 14.6968 13.5747 12.3917C13.5259 12.4393 13.5013 12.4869 13.5013 12.4869C12.1669 14.1604 10.8239 15.8432 9.47705 17.5242C8.60618 18.612 7.734 19.6982 6.86183 20.781C6.44667 21.304 6.32454 21.898 6.47084 22.5631C6.49544 22.6583 6.47084 22.777 6.42208 22.8246C6.31117 22.9449 6.18817 23.0644 6.06518 23.1839C5.94391 23.3017 5.82308 23.4195 5.71433 23.5373C4.98198 24.3218 4.78648 25.4865 5.2504 26.4373C6.03152 28.1008 8.25316 28.481 9.6445 27.1976L10.3035 26.556C10.518 26.3596 10.7916 26.2719 11.0553 26.2911C11.2715 26.307 11.4812 26.3955 11.646 26.556C12.0366 26.9127 12.0366 27.4591 11.646 27.8627C11.4972 28.0239 11.3371 28.1743 11.1808 28.3214C11.1066 28.3916 11.0332 28.4601 10.9625 28.5286L9.59573 29.8595C9.8771 30.1177 10.1585 30.3567 10.4334 30.5948Z" fill="black"/>
</svg>

<svg xmlns="http://www.w3.org/2000/svg" width="31" height="31" fill="none" viewBox="0 0 31 31">
  <path fill="#000" d="M20.508 15.671c3.002 0 5.468-2.377 5.468-5.324l.024-.023C26 7.4 23.56 5 20.556 5c-3.027 0-5.517 2.376-5.517 5.324-.024 2.922 2.466 5.347 5.469 5.347ZM10.433 30.595c.155.134.307.268.457.405v-.023h.097c.049-.072.098-.143.146-.19.562-.547 1.123-1.118 1.71-1.664.463-.452.756-.975.83-1.593a2.638 2.638 0 0 0-1.417-2.685 2.754 2.754 0 0 0-3.1.38c-.268.237-.537.523-.805.76-.415.357-1.001.333-1.343-.023-.366-.357-.366-.927 0-1.308.22-.213.415-.427.635-.617.049-.072.17-.072.244-.072.732.167 1.367 0 1.953-.451 2.758-2.091 5.541-4.207 8.3-6.298.044-.029.088-.057.133-.091a.985.985 0 0 0 .086-.075c-2.392-.785-3.955-2.353-4.784-4.658-.05.047-.074.095-.074.095a2746.087 2746.087 0 0 1-6.64 8.294c-.414.523-.536 1.117-.39 1.782.024.095 0 .214-.049.262-.11.12-.234.24-.357.359a9.304 9.304 0 0 0-.35.353c-.733.785-.929 1.95-.465 2.9.782 1.664 3.003 2.044 4.395.76l.659-.641c.214-.196.488-.284.751-.265a.942.942 0 0 1 .591.265c.39.357.39.903 0 1.307-.149.16-.309.311-.465.458l-.218.208-1.367 1.33c.281.259.563.498.837.736Z"/>
</svg>
